!!!COM: Saint-Saens, Camille
!!!CNT: Francais
!!!TXO: Francais
!!!OTL: Soire/e en Mer
!!!LYR: Victor Hugo
!!!ENC: Jacob Pegg
!!!YOR: Huit melodies : for high voice
!!!YOR: Huntsville, TX: Recital Publications, 1982 
!!!ODT: 1862/
!!NB: Vocal melody and text only encoded.
!!NB: First instance of melodic material only encoded.
**kern	**silbe
*clef G2	*
*k[b-e-a-d-]	*
*M6/8	*
!!created: 3/1/04 12:56 PM
!!proofed and posted: 3/2/04 12:10 AM
!!edit time: 32 min.
=5	=5
{2.a-	{Pre\s
=6	=6
2.g	du
=7	=7
4.f	pe^-
[4.dd-	-cheur
=8	=8
4.dd-]	|
(8cc	qui
8b-	|
8a-)	ruis-
=9	=9
4.cc	-sel-
[4.b-	-le,
=10	=10
4.b-]}	|}
4r	.
8r	.
=11	=11
{4f	{Quand
8g	tous
[4.a-	deux
=12	=12
4a-]	|
8g	au
4f	jour
8e-	bais-
=13	=13
[2.e-	-sant,
=14	=14
4e-]}	|}
8r	.
4r	.
8r	.
!!mm.15-20 repeat material
=21	=21
4r	.
8r	.
{4e-	{Lais-
8f	-sant
=22	=22
4g-	chan-
8a-	-ter
4b-	l'hom-
8cc	-me
=23	=23
4.ee-	fre^-
4.dd-}	-le}
=24	=24
4r	.
2r	.
=25	=25
{4f	{Et
8g	ge/-
[4.a-	-mir
=26	=26
4a-]	|
8b-	le
4cc	flot
8b-	puis-
=27	=27
[2.b-	-sant:
=28	=28
8b-]}	|}
8r	.
8r	.
4r	.
8r	.
!!29-44 repeat material
=45	=45
4r	.
8r	.
{8e-	{Quand
8f	ton
8g-	re-
=46	=46
[4.a-	-gard
8a-]	|
8b-	aux
8cc	e/-
=47	=47
4.ee-	-toi-
4.dd-}	-les}
=48	=48
2r	.
4r	.
=49	=49
{[4.f	{Sem-
4f]	|
8g	-ble
=50	=50
4a-	cueil-
8b-	-lir
4cc	des
8b-	ray-
=51	=51
[2.b-	-ons;
=52	=52
8b-]}	|}
8r	.
8r	.
4r	.
8r	.
=53	=53
4r	.
8r	.
{4g	{Quand
8a-	tous
=54	=54
4b-	deux
8b-	nos
4b-	croy-
8b-	-ons
=55	=55
4.b-	li-
4.an}	-re}
=56	=56
4r	.
8r	.
{4an	{Ce
8an	que
=57	=57
4b-	la
8b-	na-
(8b-	-ture
8dd-)	|
8cc	e/-
=58	=58
2.an}	-crit,}
=59	=59
4r	.
{8an	{Re/-
4an	-ponds,
8b-	o^
=60	=60
4.cc	toi
4cc	que
8cc	j'ad-
=61	=61
4.cc	-mi-
4.bn}	-re!}
=62	=62
4r	.
8r	.
{4cc	{D'ou\
8ddn	vient
=63	=63
4ee-	que
8ee-	mon
4ee-	coeur
8ee-	sou-
=64	=64
(4.aa-	-pi-
4.cc	|
=65	=65
4.dd-	|
4.ee-)	|
=66	=66
4f}	-re?}
{8f	{D'ou\
[4.a-	vient
=67	=67
8a-]	|
8g	que
8f	ton
4g	front
8g	sou-
=68	=68
[2.a-	-rit?
=69	=69
4a-]}	|}
8r	.
4r	.
8r	.
!!repeat material until end of song at m. 159
*-	*-
